X:32
T:Garry Owen
M:6/8
Q:1/8=300
K:G
%%MIDI channel 1
%%MIDI program 72
%%MIDI transpose 8
%%MIDI grace 1/8
%%MIDI ratio 3 1
g/f/|edc BAG|B>cB B2g/f/|edc BAG|A>BA A2g/f/|edc BAG|B>cB B2c|
def gdB|A>BA A2::B/c/|d2B d2B|d2B dgf|e2c e2c|e2c e2f|g2a b2a|gfe d2B|def gdB|A>BA A2:|

